assets/image_placeholder.svg

<svg xmlns="http://www.w3.org/2000/svg" width="650" height="650" fill="none" viewBox="0 0 650 650"><g clip-path="url(#a)"><path fill="url(#b)" d="M650 0H0v650h650V0Z"/><path fill="#fff" fill-rule="evenodd" d="M330.607 300.862c.947-.946 2.482-.946 3.429 0l4.345 4.347 4.347-4.347c.947-.946 2.481-.946 3.428 0 .947.948.947 2.482 0 3.429l-4.346 4.347 4.346 4.345c.947.947.947 2.482 0 3.429-.947.946-2.481.946-3.428 0l-4.347-4.346-4.345 4.346c-.947.946-2.482.946-3.429 0-.946-.947-.946-2.482 0-3.429l4.346-4.345-4.346-4.347c-.946-.947-.946-2.481 0-3.429Zm-19.475.503h11.493c1.339 0 2.424 1.085 2.424 2.424s-1.085 2.425-2.424 2.425h-11.394c-2.076 0-3.487.001-4.578.09-1.063.086-1.607.244-1.985.437-.913.465-1.655 1.207-2.119 2.119-.194.379-.351.923-.438 1.986-.089 1.09-.091 2.503-.091 4.579v20.362c0 2.077.002 3.488.091 4.579.087 1.063.244 1.606.438 1.985.434.853 1.11 1.557 1.942 2.025.21-.328.433-.577.58-.737.368-.397.869-.853 1.386-1.323l20.625-18.749c.389-.355.776-.706 1.129-.98.392-.306.879-.629 1.502-.831.873-.284 1.81-.314 2.701-.086.633.162 1.139.454 1.55.735.37.252.778.578 1.189.907l6.835 5.469c.053.041.105.083.157.125.762.608 1.432 1.144 1.957 1.812.654.833 1.117 1.798 1.36 2.828.194.828.194 1.686.193 2.661 0 .066-.001.133-.001.201v.085c0 .404 0 .789-.001 1.16.001.024.001.049.001.074 0 .112.001.223.001.333.001 1.928.001 3.36-.331 4.6-.393 1.464-1.114 2.788-2.081 3.888-.346.395-.724.761-1.13 1.095-1.05.863-2.288 1.509-3.646 1.873-1.24.333-2.672.332-4.6.331h-24.498c-.62 0-1.223 0-1.728-.033-.494-.016-.955-.04-1.383-.074-1.363-.112-2.615-.35-3.792-.95-1.824-.93-3.307-2.413-4.238-4.237-.599-1.177-.837-2.429-.949-3.792-.107-1.312-.107-2.922-.107-4.874v-20.563c0-1.951 0-3.562.107-4.874.112-1.362.35-2.614.949-3.791.931-1.824 2.414-3.308 4.238-4.237 1.177-.599 2.429-.839 3.792-.95 1.312-.108 2.922-.108 4.874-.107Zm28.68 41.727c.241-.316.444-.663.603-1.035.142-.332.259-.807.324-1.723.065-.939.066-2.148.066-3.926 0-1.289-.015-1.545-.063-1.753-.081-.344-.236-.666-.453-.944-.133-.169-.323-.34-1.329-1.145l-6.782-5.424c-.487-.39-.748-.598-.947-.733-.007-.005-.014-.01-.021-.014l-.018.015c-.19.148-.439.371-.9.791l-19.577 17.798H332.214c1.779 0 2.988-.002 3.927-.068.916-.064 1.391-.181 1.723-.323.378-.162.73-.368 1.05-.615.338-.26.64-.563.898-.901Zm-26.883-28.395c-1.339 0-2.424 1.086-2.424 2.424 0 1.339 1.085 2.424 2.424 2.424s2.424-1.085 2.424-2.424c0-1.338-1.085-2.424-2.424-2.424Zm-7.272 2.424c0-4.016 3.256-7.272 7.272-7.272s7.272 3.256 7.272 7.272c0 4.017-3.256 7.273-7.272 7.273s-7.272-3.256-7.272-7.273Z" clip-rule="evenodd"/></g><defs><radialGradient id="b" cx="0" cy="0" r="1" gradientTransform="rotate(90 0 325) scale(325)" gradientUnits="userSpaceOnUse"><stop stop-color="#CECECE"/><stop offset="1" stop-color="#EAEAEA"/></radialGradient><clipPath id="a"><path fill="#fff" d="M0 0h650v650H0z"/></clipPath></defs></svg>

<svg width="650" height="650" viewBox="0 0 650 650" fill="none" xmlns="http://www.w3.org/2000/svg">
<g clip-path="url(#clip0_1052_22)">
<path d="M650 0H0V650H650V0Z" fill="url(#paint0_radial_1052_22)"/>
<path fill-rule="evenodd" clip-rule="evenodd" d="M330.607 300.862C331.554 299.916 333.089 299.916 334.036 300.862L338.381 305.209L342.728 300.862C343.675 299.916 345.209 299.916 346.156 300.862C347.103 301.81 347.103 303.344 346.156 304.291L341.81 308.638L346.156 312.983C347.103 313.93 347.103 315.465 346.156 316.412C345.209 317.358 343.675 317.358 342.728 316.412L338.381 312.066L334.036 316.412C333.089 317.358 331.554 317.358 330.607 316.412C329.661 315.465 329.661 313.93 330.607 312.983L334.953 308.638L330.607 304.291C329.661 303.344 329.661 301.81 330.607 300.862ZM311.132 301.365H322.625C323.964 301.365 325.049 302.45 325.049 303.789C325.049 305.128 323.964 306.214 322.625 306.214H311.231C309.155 306.214 307.744 306.215 306.653 306.304C305.59 306.39 305.046 306.548 304.668 306.741C303.755 307.206 303.013 307.948 302.549 308.86C302.355 309.239 302.198 309.783 302.111 310.846C302.022 311.936 302.02 313.349 302.02 315.425V335.787C302.02 337.864 302.022 339.275 302.111 340.366C302.198 341.429 302.355 341.972 302.549 342.351C302.983 343.204 303.659 343.908 304.491 344.376C304.701 344.048 304.924 343.799 305.071 343.639C305.439 343.242 305.94 342.786 306.457 342.316L327.082 323.567C327.471 323.212 327.858 322.861 328.211 322.587C328.603 322.281 329.09 321.958 329.713 321.756C330.586 321.472 331.523 321.442 332.414 321.67C333.047 321.832 333.553 322.124 333.964 322.405C334.334 322.657 334.742 322.983 335.153 323.312L341.988 328.781C342.041 328.822 342.093 328.864 342.145 328.906C342.907 329.514 343.577 330.05 344.102 330.718C344.756 331.551 345.219 332.516 345.462 333.546C345.656 334.374 345.656 335.232 345.655 336.207C345.655 336.273 345.654 336.34 345.654 336.408V336.493C345.654 336.897 345.654 337.282 345.653 337.653C345.654 337.677 345.654 337.702 345.654 337.727C345.654 337.839 345.655 337.95 345.655 338.06C345.656 339.988 345.656 341.42 345.324 342.66C344.931 344.124 344.21 345.448 343.243 346.548C342.897 346.943 342.519 347.309 342.113 347.643C341.063 348.506 339.825 349.152 338.467 349.516C337.227 349.849 335.795 349.848 333.867 349.847C333.758 349.847 333.646 349.847 333.533 349.847H332.448C332.399 349.847 332.349 349.847 332.301 349.847H311.132C311.073 349.847 311.015 349.847 310.957 349.847H309.369C308.749 349.847 308.146 349.847 307.641 349.814C307.147 349.798 306.686 349.774 306.258 349.74C304.895 349.628 303.643 349.39 302.466 348.79C300.642 347.86 299.159 346.377 298.228 344.553C297.629 343.376 297.391 342.124 297.279 340.761C297.172 339.449 297.172 337.839 297.172 335.887V315.324C297.172 313.373 297.172 311.762 297.279 310.45C297.391 309.088 297.629 307.836 298.228 306.659C299.159 304.835 300.642 303.351 302.466 302.422C303.643 301.823 304.895 301.583 306.258 301.472C307.57 301.364 309.18 301.364 311.132 301.365ZM339.812 343.092C340.053 342.776 340.256 342.429 340.415 342.057C340.557 341.725 340.674 341.25 340.739 340.334C340.804 339.395 340.805 338.186 340.805 336.408C340.805 335.119 340.79 334.863 340.742 334.655C340.661 334.311 340.506 333.989 340.289 333.711C340.156 333.542 339.966 333.371 338.96 332.566L332.178 327.142C331.691 326.752 331.43 326.544 331.231 326.409C331.224 326.404 331.217 326.399 331.21 326.395C331.204 326.4 331.198 326.405 331.192 326.41C331.002 326.558 330.753 326.781 330.292 327.201L310.715 344.999C310.883 344.999 311.054 344.999 311.231 344.999H332.214C333.993 344.999 335.202 344.997 336.141 344.931C337.057 344.867 337.532 344.75 337.864 344.608C338.242 344.446 338.594 344.24 338.914 343.993C339.252 343.733 339.554 343.43 339.812 343.092ZM312.929 314.697C311.59 314.697 310.505 315.783 310.505 317.121C310.505 318.46 311.59 319.545 312.929 319.545C314.268 319.545 315.353 318.46 315.353 317.121C315.353 315.783 314.268 314.697 312.929 314.697ZM305.657 317.121C305.657 313.105 308.913 309.849 312.929 309.849C316.945 309.849 320.201 313.105 320.201 317.121C320.201 321.138 316.945 324.394 312.929 324.394C308.913 324.394 305.657 321.138 305.657 317.121Z" fill="white"/>
</g>
<defs>
<radialGradient id="paint0_radial_1052_22" cx="0" cy="0" r="1" gradientUnits="userSpaceOnUse" gradientTransform="translate(325 325) rotate(90) scale(325)">
<stop stop-color="#CECECE"/>
<stop offset="1" stop-color="#EAEAEA"/>
</radialGradient>
<clipPath id="clip0_1052_22">
<rect width="650" height="650" fill="white"/>
</clipPath>
</defs>
</svg>
